src/assets/img/icons/duotone-icons/Food/Bucket.svg

<?xml version="1.0" encoding="UTF-8"?>
<svg width="24px" height="24px" viewBox="0 0 24 24" version="1.1" xmlns="http://www.w3.org/2000/svg" xmlns:xlink="http://www.w3.org/1999/xlink">
    <!-- Generator: Sketch 52.2 (67145) - http://www.bohemiancoding.com/sketch -->
    <title>Stockholm-icons / Food / Bucket</title>
    <desc>Created with Sketch.</desc>
    <g id="Stockholm-icons-/-Food-/-Bucket" stroke="none" stroke-width="1" fill="none" fill-rule="evenodd">
        <rect id="bound" x="0" y="0" width="24" height="24"></rect>
        <rect id="Rectangle" fill="#335EEA" opacity="0.3" x="7" y="1" width="10" height="3" rx="1"></rect>
        <path d="M9.32225611,6 L14.6777439,6 C17.4391676,6 19.6777439,8.23857625 19.6777439,11 C19.6777439,11.1040398 19.6744966,11.2080542 19.6680068,11.3118914 L19.1172027,20.1247566 C19.0513233,21.1788264 18.1772241,22 17.1210976,22 L6.87890244,22 C5.82277588,22 4.94867665,21.1788264 4.88279729,20.1247566 L4.33199321,11.3118914 C4.15974033,8.55584534 6.25431858,6.18198999 9.01036468,6.00973711 C9.11420186,6.00324728 9.21821631,6 9.32225611,6 Z M9,9 C7.8954305,9 7,9.8954305 7,11 L7,12 C7,13.1045695 7.8954305,14 9,14 L15,14 C16.1045695,14 17,13.1045695 17,12 L17,11 C17,9.8954305 16.1045695,9 15,9 L9,9 Z" id="Combined-Shape" fill="#335EEA"></path>
    </g>
</svg>

<svg width="24" height="24" viewBox="0 0 24 24" xmlns="http://www.w3.org/2000/svg"><g fill="none" fill-rule="evenodd"><path d="M0 0h24v24H0z"/><rect fill="#335EEA" opacity=".3" x="7" y="1" width="10" height="3" rx="1"/><path d="M9.322 6h5.356a5 5 0 014.99 5.312l-.55 8.813A2 2 0 0117.12 22H6.88a2 2 0 01-1.996-1.875l-.551-8.813A5 5 0 019.322 6zM9 9a2 2 0 00-2 2v1a2 2 0 002 2h6a2 2 0 002-2v-1a2 2 0 00-2-2H9z" fill="#335EEA"/></g></svg>
